X:1
T:Lauda anima mea
T:Peter Griesbacher 
T:Lauda anima mea
T:Praise the Lord, O my soul! I will praise the Lord throughout my life; I will sing to my God for as long as I live. Alleluia!
C:Peter Griesbacher
%%score [ 1 2 3 4 ]
L:1/8
Q:1/4=100
M:4/4
K:D
V:1 treble nm="Soprano" snm="S."
V:2 treble nm="Alto" snm="A."
V:3 treble-8 transpose=-12 nm="Tenor" snm="T."
V:4 bass nm="Bass" snm="B."
V:1
 z8 | z8 |!pp! z8 | A6 F2 | F3 F F4 | F4 D4 |!>(! E6 E2!>)! | E8 | z8 |!mf! z2 d2 B2 G2 | %10
w: |||Lau- da|a- ni- ma|me- a|Do- mi-|num:||lau- da- bo|
!<(! B3 B B2!<)! B2 | e6 d2 | d8 |"^più mosso" c8 |!mf! z2 c4 A2 | A2 F2 F2 F2 |!f! z2 d4 B2 | %17
w: Do- mi- num in|vi- ta|me-|a:|psal- lam|De- o- me- o,|psal- lam|
 B2 G2 G2 G2 |!ff! z2 g4 e2 | e2 c2 c2 c2 |!<(! d3 e!<)! e4 | f4!mf! F4 | %22
w: De- o me- o,|psal- lam|De- o me- o,|quam- di- u|e- ro,|
!<(! B6!<)!"^cresc. sempre" B2 | c4 c4 | d6 d2 | e4 e4 | f6 f2 | (f4 !>!g2 f2) | (e2 d2) c2 B2 | %29
w: al- le-|lu- ia|al- le-|lu- ia,|al- le-|lu- * *|ia, _ al- le-|
 (A4 e4) | d8- | d8- | d8- | d4 z4 |] %34
w: lu- *|ia.|_|||
V:2
 z8 | z8 |!pp! z8 | F6 D2 | D3 D D4 | D4 A,2 (D2- |!>(! D2 CD E2) C2!>)! | C8 |!mf! z2 A2 F2 D2 | %9
w: |||Lau- da|a- ni- ma|me- a Do-|* * * * mi-|num:|lau- da- bo|
 G3 G G2 D2 |!<(! G8-!<)! | G4 F4 | (F4 =F4) | E8 |!mf! z2 A4 F2 | F2 D2 D2 D2 |!f! z2 B4 G2 | %17
w: Do- mi- num in|vi-|* ta|me- *|a:|psal- lam|De- o- me- o,|psal- lam|
 G2 E2 E2 E2 |!ff! z2 G4 G2 | G2 A2 A2 A2 |!<(! F3 B!<)! B4 | ^A4!mf! F4 | %22
w: De- o me- o,|psal- lam|De- o me- o,|quam- di- u|e- ro,|
!<(! ^D2 D2 E2!<)!"^cresc. sempre" E2 | ^E2 E2 F2 F2 | F2 F2 G2 G2 | ^G2 G2 A2 A2 | (F4 ^G2) ^A2 | %27
w: al- le- lu- ia,|al- le- lu- ia,|al- le- lu- ia,|al- le- lu- ia,|al- * le-|
 (B2 =A2 G2 =c2) | B4 E2 ^E2 | (F2 A4 G2) | F2 B4 A2 | (D2 G2 F2 E2) | F8- | F4 z4 |] %34
w: lu- * * *|ia, al- le-|lu- * *|ia, al- le-|lu- * * *|ia.|_|
V:3
 z8 | z8 |!pp! z8 | (d2 cB A2) B2 | B3 A A4 | A4 F4 |!>(! (A3 B c2) A2!>)! | A2!mf! e2 c2 A2 | %8
w: |||Lau- * * * da|a- ni- ma|me- a|Do- * * mi-|num, lau- da- bo|
 d3 A A2 (B2- | B^ABc d2) B2 |!<(! B4!<)! B4 | (B4 A2) B2 | (A4 B4) |!mf! c2 e4 c2 | c2 A2 A2 A2 | %15
w: Do- mi- num, Do-|* * * * * mi-|num in|vi- * ta|me- *|a: psal- lam|De- o me- o,|
!f! z2 f4 d2 | d2 B2 B2 B2 | e2 B2 B2 B2 |!ff! z2 B4 c2 | c2 e2 e2 e2 |!<(! d4!<)! c2 B2 | %21
w: psal- lam|De- o me- o,|De- o me- o,|psal- lam|De- o me- o,|quam- di- u|
 c4!mf! F4 |!<(! F2 F2 ^G2!<)!"^cresc. sempre" G2 | ^G2 G2 A2 A2 | A2 A2 B2 B2 | B2 B2 c2 c2 | %26
w: e- ro,|al- le- lu- ia,|al- le- lu- ia,|al- le- lu- ia,|al- le- lu- ia,|
 (c4 d2) e2 | d2 d2 d2 ^d2 | (e4 d4- | d2 c2 B2 c2) | d4 f2 d2 | (g4 B4) | A8- | A4 z4 |] %34
w: al- * le-|lu- ia, al- le-|lu- *||ia, al- le-|lu- *|ia.|_|
V:4
!p!"^dolce" A,6 F,2 | F,3 F, F,4 | F,4 D,4 | D,8- | D,4 D,4 | D,8 |!>(! A,,6 A,,2!>)! | %7
w: Lau- da|a- ni- ma|me- a|Do-|* mi-|num,|Do- mi-|
 A,,4!mf! z2 A,2 | F,4 D,2 D2 | B,4 G,4 |!<(! E,3 E, E,2!<)! E,2 | (E,4 F,2) ^G,2 | A,8 | %13
w: num, lau-|da- bo, lau-|da- bo|Do- mi- num in|vi- * ta|me-|
!mf! A,2 C4 A,2 | A,2 F,2 F,2 F,2 |!f! z2 D4 B,2 | B,2 G,2 G,2 G,2 | E,2 E,2 E,2 E,2 | %18
w: a: psal- lam|De- o me- o,|psal- lam|De- o me- o,|De- o me- o,|
!ff! z2 E,4 A,2 | A,2 A,,2 A,,2 A,,2 |!<(! B,3 G,!<)! G,4 | F,4!mf! F,4 | %22
w: psal- lam|De- o me- o,|quam- di- u|e- ro,|
!<(! B,,2 B,,2 E,2!<)! E,2 |"^cresc. sempre" C,2 C,2 F,2 F,2 | D,2 D,2 G,2 G,2 | E,2 E,2 A,2 A,2 | %26
w: al- le- lu- ia,|al- le- lu- ia,|al- le- lu- ia,|al- le- lu- ia,|
 (^A,4 B,2) C2 | (B,2 =C2 B,2 A,2 | G,4 ^G,4) | A,2 A,4 A,2 | (B,4 =C4 | B,4 G,4) | D,8- | %33
w: al- * le-|lu- * * *||ia, al- le-|lu- *||ia.|
 D,4 z4 |] %34
w: _|

